src/assets/img/icons/duotone-icons/Home/Bath.svg

<?xml version="1.0" encoding="UTF-8"?>
<svg width="24px" height="24px" viewBox="0 0 24 24" version="1.1" xmlns="http://www.w3.org/2000/svg" xmlns:xlink="http://www.w3.org/1999/xlink">
    <!-- Generator: Sketch 52.2 (67145) - http://www.bohemiancoding.com/sketch -->
    <title>Stockholm-icons / Home / Bath</title>
    <desc>Created with Sketch.</desc>
    <g id="Stockholm-icons-/-Home-/-Bath" stroke="none" stroke-width="1" fill="none" fill-rule="evenodd">
        <path d="M6,10 C6,10.5522847 5.55228475,11 5,11 C4.44771525,11 4,10.5522847 4,10 L4,6 C4,4.34314575 5.34314575,3 7,3 C8.65685425,3 10,4.34314575 10,6 C10,6.55228475 9.55228475,7 9,7 C8.44771525,7 8,6.55228475 8,6 C8,5.44771525 7.55228475,5 7,5 C6.44771525,5 6,5.44771525 6,6 L6,10 Z" id="Path-60" fill="#335EEA" opacity="0.3"></path>
        <path d="M6,20 L4,20 C4,17.2385763 6.23857625,16 9,16 L15,16 C17.7614237,16 20,17.2385763 20,20 L18,20 C18,18.3431458 16.6568542,18 15,18 L9,18 C7.34314575,18 6,18.3431458 6,20 Z" id="Path-61" fill="#335EEA" opacity="0.3"></path>
        <path d="M2,9 L23,9 L22.4942047,13.5521576 C22.2128532,16.084321 20.0725321,18 17.524786,18 L7.47521397,18 C4.92746788,18 2.78714678,16.084321 2.50579529,13.5521576 L2,9 Z M19.25,11.5 C19.25,12.9305987 18.694479,14.0416408 17.55,14.9 C17.2186292,15.1485281 17.1514719,15.6186292 17.4,15.95 C17.6485281,16.2813708 18.1186292,16.3485281 18.45,16.1 C19.9721877,14.9583592 20.75,13.4027346 20.75,11.5 C20.75,11.0857864 20.4142136,10.75 20,10.75 C19.5857864,10.75 19.25,11.0857864 19.25,11.5 Z" id="Combined-Shape" fill="#335EEA"></path>
    </g>
</svg>

<svg width="24" height="24" viewBox="0 0 24 24" xmlns="http://www.w3.org/2000/svg"><g fill="#335EEA" fill-rule="evenodd"><path d="M6 10a1 1 0 01-2 0V6a3 3 0 116 0 1 1 0 11-2 0 1 1 0 10-2 0v4zM6 20H4c0-2.761 2.239-4 5-4h6c2.761 0 5 1.239 5 4h-2c0-1.657-1.343-2-3-2H9c-1.657 0-3 .343-3 2z" opacity=".3"/><path d="M2 9h21l-.506 4.552A5 5 0 0117.524 18H7.476a5 5 0 01-4.97-4.448L2 9zm17.25 2.5c0 1.43-.556 2.542-1.7 3.4a.75.75 0 00.9 1.2c1.522-1.142 2.3-2.697 2.3-4.6a.75.75 0 10-1.5 0z"/></g></svg>
